X:11
T:Saltarello
Z:Transcrit et/ou corrigé par B@D - 2006-09-22
Z:Pour toute observation mailto:-@-
M:2/4
L:1/16
K:Bb
e2f2 | gfg_a gfga | g4 e2f2 | g2_ag fede | c2=B2 A2=B2 |
c=BAB c2A2 | =B4 c=BAB | c2d2 fede | c2_B2 fede | f2g2 b_agf |1
g4 fede | c=BA=B  c2G2 | c4 :|2 g4 fedc | c_BcA B2F2 | B4 |:
e2f2 | g2_ag fede | c2=B2 A2=B2 | c=BA=B c2A2 | =B4 c=BA=B | c2d2 fede | (c2B2) fede |
(f2g2) b_agf |1 g4 fede | cBAB c2G2 | c4 :|2 g4 fedc | cBcA B2F2 | B4 |:
edcB | e2fg b_agf | g4 e2f2 | g2_ag fede | c2=B2 A2=B2 |
c=BA=B c2A2 | =B4 c=BA=B | c2d2 fede | c2B2 fede | f2g2 b_age |1
g4 fede | c=BA=B c2G2 | c4 :|2 g2 fedc | cBcA B2F2 | B4 |:
baga | b2f2 _edcd | e2fg b_agf | g4 e2f2 | g2_ag fede | c2=B2 A2=B2 |
c=BA=B c2A2 | =B4 c=BA=B | c2d2 feMde | c2B2 fede | f2g2 b_agf |1
g4 fede | cBAB c2G2 | c4 :|2 g4 fedc | cBcA B2F2 | B4 |:
a2b2 | c'2b2 agfg | b2f2 edcd | e2fg b_agf |
g4 e2f2 | g2_ag fede | c2=B2 A2=B2 | c=BA=B c2A2 | =B4 c=BA=B |
c2d2 fede | c2B2 fede | f2g2 b_agf |1
g4 fede | c=BA=B c2G2 | c4 :|2 g4 fedc | cBAB B2F2 B4 |:
a2b2 | c'bab c'2g2 | c'4 a2b2 | c'2b2 bagf | b2f2 edcd |
e2fg b_agf | g4 e2f2 | g2_ag fede | c2=B2 A2=B2 |
c=BA=B c2A2 | B4 c=BA=B | c2d2 fede | c2B2 fede | f2g2 b_agf |1
g4 fede | c=BA=B c2G2 | c4 :|2 g4 fedc | cBcA B2F2 | B4 |]

%%text Gal en Sol


%%header "$P0	 $IR 	$P1"
%%footer $D - Éditions Galouvielle - 2009 - À usage librement privé dans le cadre familial

